public/assets/icons/play-button.svg

<?xml version='1.0' encoding='utf-8'?>
<svg version="1.1" xmlns="http://www.w3.org/2000/svg" viewBox="0 0 129 129" xmlns:xlink="http://www.w3.org/1999/xlink" enable-background="new 0 0 129 129">
  <g>
    <g>
      <path d="m64.5,122.7c32.1,0 58.2-26.1 58.2-58.2s-26.1-58.2-58.2-58.2-58.2,26.1-58.2,58.2 26.1,58.2 58.2,58.2zm0-108.2c27.6,0 50,22.4 50,50s-22.4,50-50,50-50-22.5-50-50 22.4-50 50-50z"/>
      <path d="m53.1,94.5c0.5,0.2 1,0.3 1.6,0.3 1.1,0 2.1-0.4 2.9-1.2l26.4-26.5c0.8-0.8 1.2-1.8 1.2-2.9s-0.4-2.2-1.2-2.9l-26.5-26.5c-1.2-1.2-2.9-1.5-4.5-0.9-1.5,0.6-2.5,2.1-2.5,3.8v53c0,1.6 1,3.1 2.6,3.8zm5.6-46.9l16.6,16.6-16.6,16.6v-33.2z"/>
    </g>
  </g>
</svg>

<?xml version="1.0" encoding="utf-8"?>
<!-- Generator: Adobe Illustrator 23.0.4, SVG Export Plug-In . SVG Version: 6.00 Build 0)  -->
<svg version="1.1" id="Layer_1" xmlns="http://www.w3.org/2000/svg" xmlns:xlink="http://www.w3.org/1999/xlink" x="0px" y="0px"
	 viewBox="0 0 129 129" style="enable-background:new 0 0 129 129;" xml:space="preserve">
<style type="text/css">
	.st0{fill:#FFFFFF;}
</style>
<g>
	<g>
		<path class="st0" d="M64.5,122.7c32.1,0,58.2-26.1,58.2-58.2S96.6,6.3,64.5,6.3S6.3,32.4,6.3,64.5S32.4,122.7,64.5,122.7z
			 M64.5,14.5c27.6,0,50,22.4,50,50s-22.4,50-50,50s-50-22.5-50-50S36.9,14.5,64.5,14.5z"/>
		<path class="st0" d="M53.1,94.5c0.5,0.2,1,0.3,1.6,0.3c1.1,0,2.1-0.4,2.9-1.2L84,67.1c0.8-0.8,1.2-1.8,1.2-2.9S84.8,62,84,61.3
			L57.5,34.8c-1.2-1.2-2.9-1.5-4.5-0.9c-1.5,0.6-2.5,2.1-2.5,3.8v53C50.5,92.3,51.5,93.8,53.1,94.5z M58.7,47.6l16.6,16.6L58.7,80.8
			C58.7,80.8,58.7,47.6,58.7,47.6z"/>
	</g>
</g>
</svg>
